X: 06072
T: PAT 'N' DICK'S JIG
C: Bob McQuillen 20 Feb 82
B: Bob's Note Book 6 #72
%R: jig
Z: 2021 John Chambers <jc:trillian.mit.edu>
M: 6/8
L: 1/8
K: A
E \
| Acf ecB | ABc AFE | Acf ece | fec BGE |\
| Acf ece | fec AFA | BcB AFE | FAA A2 :|
|: B \
| cBc AFE | fec AFE | cBc ABc | efe ece |\
| f3  e2c | BcB AFE | faf eAc | BAA A2 :|
%%begintext align
%% This one
%% is for Pat and Dick De La Chapelle, of
%% Peterborough, with best wishes always.
%%endtext

%%sep 1 1 500

%%sep 1 1 500

